svg/fluentui-system-icons/ic_fluent_edit_off_20_filled.svg

<svg width="20" height="20" viewBox="0 0 20 20" fill="none" xmlns="http://www.w3.org/2000/svg">
<path d="M2.85355 2.14645C2.65829 1.95118 2.34171 1.95118 2.14645 2.14645C1.95118 2.34171 1.95118 2.65829 2.14645 2.85355L7.54304 8.25015L3.54545 12.2475C3.21763 12.5754 2.99008 12.9899 2.88953 13.4424L2.01191 17.3923C1.97483 17.5592 2.02559 17.7335 2.14649 17.8544C2.26739 17.9753 2.44166 18.026 2.60855 17.9889L6.53494 17.1157C7.00237 17.0118 7.43048 16.7767 7.76907 16.4381L11.75 12.4571L17.1464 17.8536C17.3417 18.0488 17.6583 18.0488 17.8536 17.8536C18.0488 17.6583 18.0488 17.3417 17.8536 17.1464L2.85355 2.14645ZM15.751 8.45613L13.1641 11.043L8.95717 6.83608L11.5441 4.24927L15.751 8.45613ZM12.9203 2.87317C14.1027 1.69077 16.0271 1.71505 17.1794 2.92689C18.2913 4.09631 18.2681 5.93899 17.1271 7.08003L16.4581 7.74902L12.2512 3.54217L12.9203 2.87317Z" fill="#212121"/>
</svg>

<svg xmlns="http://www.w3.org/2000/svg" width="20" height="20"><path d="M2.854 2.146a.5.5 0 1 0-.708.708L7.543 8.25l-3.998 3.998a2.438 2.438 0 0 0-.655 1.194l-.878 3.95a.5.5 0 0 0 .597.597l3.926-.873a2.518 2.518 0 0 0 1.234-.678l3.981-3.98 5.396 5.396a.5.5 0 0 0 .708-.708l-15-15Zm12.897 6.31-2.587 2.587-4.207-4.207 2.587-2.587 4.207 4.207Zm-2.83-5.583a2.975 2.975 0 0 1 4.206 4.207l-.669.669-4.207-4.207.67-.669Z"/></svg>
